Yaru++/mimetypes/48/text-x-python.svg

<svg height="48" viewBox="0 0 12.699375 12.699375" width="48" xmlns="http://www.w3.org/2000/svg" xmlns:xlink="http://www.w3.org/1999/xlink"><linearGradient id="a" gradientUnits="userSpaceOnUse" x1="6.350072" x2="6.350072" y1=".396856" y2="12.03795"><stop offset="0" stop-color="#fff"/><stop offset=".125" stop-color="#fff" stop-opacity=".098039"/><stop offset=".92500001" stop-color="#fff" stop-opacity=".098039"/><stop offset="1" stop-color="#fff" stop-opacity=".498039"/></linearGradient><linearGradient id="b" gradientTransform="matrix(0 -.02997086 .02997 0 -3.039509 13.625372)" gradientUnits="userSpaceOnUse" x1="459.03448" x2="35.310345" y1="419.23337" y2="207.36522"><stop offset="0" stop-color="#f2f2f2"/><stop offset="1" stop-color="#f9f9f9"/></linearGradient><path d="m4.1621982.39685654c-.5881133-.0089583-1.0513178.0135407-1.4323995.0775109-.3810845.0639689-.6929229.1839555-.9213476.4118407-.2284221.22788556-.3489841.53958346-.4123566.92082876-.0633726.3812456-.0757439.8453924-.0728601 1.4349839v3.2399529 3.2415031c-.00286.5886852.00955 1.0525972.07286 1.4334332.063372.381246.1839345.692944.4123566.920829.2284247.227885.5402631.347873.9213476.411841.3810844.06397.8442174.07751 1.4323995.07751h4.3757443c.5881821 0 1.0510744-.01352 1.4313677-.07751.3802929-.064.6911789-.18439.9187599-.412357.227583-.227967.347434-.539443.411325-.920313.06389-.380868.07751-.844073.07751-1.4334332v-3.2415031-3.1748437l-2.8389625-2.84361416z" opacity=".1"/><path d="m4.1623596.39685654c-2.334616 0-2.5858176.2397933-2.5743749 2.57913196v3.2414149 3.2414144c-.011456 2.3393392.2397589 2.5791322 2.5743749 2.5791322h4.3757787c2.3346167 0 2.5743757-.239767 2.5743757-2.5791322v-3.2414144l-.000178-3.1748438-2.6457031-2.64570306z" fill="none" opacity=".2" stroke="#000" stroke-width=".529141"/><path d="m4.1623596.39685654c-2.334616 0-2.5858176.2397933-2.5743749 2.57913196v3.2414149 3.2414144c-.011456 2.3393392.2397589 2.5791322 2.5743749 2.5791322h4.3757787c2.3346167 0 2.5743757-.239767 2.5743757-2.5791322v-3.2414144l-.000178-3.1748438-2.6457031-2.64570306z" fill="url(#b)"/><g enable-background="new" transform="matrix(.26457031 0 0 .26457031 -38.097733 420.26992)"><path d="m166.77545-1570.9671c-2.68209 0-4.77545 1.5423-4.77545 3.4581v1.509h-1.575c-1.91578 0-3.49499 2.1595-3.45793 4.8413l.0329 2.3832c.0371 2.6819 1.57524 4.7755 3.49102 4.7755h1.50898 12v-12-1.509c0-1.9158-2.15923-3.4581-4.84132-3.4581z" fill="#3776ab"/><path d="m169.15868-1549.0329c2.68209 0 4.84132-1.5423 4.84132-3.4581v-1.509h1.50898c1.91578 0 3.42103-2.1595 3.45809-4.8413l.0329-2.3833c.0371-2.6818-1.64111-4.7754-3.55689-4.7754h-1.44311v3s.0327 3-3 3h-6s-3 0-3 3v3 1.509c0 1.9158 2.09336 3.4581 4.77545 3.4581z" fill="#ffd343"/></g><g fill="#fff"><circle cx="5.556367" cy="5.423654" r=".26457"/><circle cx="7.143789" cy="9.656779" r=".26457"/><path d="m1.5878047 6.2174034v3.2415034c-.011456 2.3393372.2397775 2.5790432 2.5743935 2.5790432h4.3757443c2.3346165 0 2.5743935-.239679 2.5743935-2.5790432v-3.2415034z" opacity=".2"/><path d="m6.3500704.39685654v11.64109346h2.1878721c2.3346165 0 2.5743935-.239679 2.5743935-2.5790432v-3.2415034-3.1748438l-2.6457031-2.64570306z" opacity=".1"/></g><path d="m4.1621982.39685654c-2.334616 0-2.5858361.2397052-2.5743935 2.57904386v3.241503 3.2415034c-.011456 2.3393372.2397775 2.5790432 2.5743935 2.5790432h4.3757443c2.3346165 0 2.5743935-.239679 2.5743935-2.5790432v-3.2415034-3.1748438h-.26457v3.1748438 3.2415034c0 .5803222-.01625 1.0240712-.07028 1.3461032-.05402.322035-.13987.509123-.264054.633524-.124184.124388-.310702.2105-.6319719.264571-.321273.05406-.7643965.07028-1.3435224.07028h-4.3757395c-.5791259 0-1.0227997-.01619-1.3450728-.07028-.3222705-.054102-.5102953-.14009-.6350719-.264571-.124774-.124488-.2105874-.311351-.2640518-.633005-.053467-.321654-.0684681-.765511-.0656266-1.3455892v-.000529-3.2420074-3.2420198-.0005291c-.00283-.5800778.01217-1.0239334.065627-1.3455882.053467-.3216548.1392778-.5085248.2640518-.63300506.124774-.1244803.31332-.2104736.6355904-.2645703.3222705-.0540718.7654284-.0702641 1.3445543-.0702641h4.3044347v-.2645703z" fill="url(#a)" opacity=".4"/><path d="m11.112336 3.30713v-.2645704l-2.6457031-2.64570306h-.2645703v1.11359066.042668.022917c0 1.5059289.201592 1.7381397 1.7109762 1.7307589z" opacity=".2"/><path d="m11.112336 3.042221-2.6457031-2.64536496v.98127586.042668.022917c0 1.5059289.069402 1.6058846 1.5787861 1.5985039z" fill="#faf8f6"/></svg>

<?xml version="1.0" encoding="UTF-8" standalone="no"?>
<svg
   xmlns:dc="http://purl.org/dc/elements/1.1/"
   xmlns:cc="http://creativecommons.org/ns#"
   xmlns:rdf="http://www.w3.org/1999/02/22-rdf-syntax-ns#"
   xmlns:svg="http://www.w3.org/2000/svg"
   xmlns="http://www.w3.org/2000/svg"
   xmlns:xlink="http://www.w3.org/1999/xlink"
   xmlns:sodipodi="http://sodipodi.sourceforge.net/DTD/sodipodi-0.dtd"
   xmlns:inkscape="http://www.inkscape.org/namespaces/inkscape"
   height="48"
   viewBox="0 0 12.699375 12.699375"
   width="48"
   version="1.1"
   id="svg43"
   sodipodi:docname="text-x-python.svg"
   inkscape:version="0.92.5 (2060ec1f9f, 2020-04-08)">
  <metadata
     id="metadata49">
    <rdf:RDF>
      <cc:Work
         rdf:about="">
        <dc:format>image/svg+xml</dc:format>
        <dc:type
           rdf:resource="http://purl.org/dc/dcmitype/StillImage" />
      </cc:Work>
    </rdf:RDF>
  </metadata>
  <defs
     id="defs47">
    <linearGradient
       gradientTransform="matrix(0.26457031,0,0,0.26457031,-84.662115,-16.006503)"
       inkscape:collect="always"
       xlink:href="#linearGradient927"
       id="linearGradient1004"
       x1="344"
       y1="62"
       x2="344"
       y2="106"
       gradientUnits="userSpaceOnUse" />
    <linearGradient
       inkscape:collect="always"
       id="linearGradient927">
      <stop
         style="stop-color:#ffffff;stop-opacity:1;"
         offset="0"
         id="stop923" />
      <stop
         id="stop933"
         offset="0.125"
         style="stop-color:#ffffff;stop-opacity:0.09803922" />
      <stop
         id="stop931"
         offset="0.92500001"
         style="stop-color:#ffffff;stop-opacity:0.09803922" />
      <stop
         style="stop-color:#ffffff;stop-opacity:0.49803922"
         offset="1"
         id="stop925" />
    </linearGradient>
    <linearGradient
       inkscape:collect="always"
       xlink:href="#linearGradient4338"
       id="linearGradient1024"
       gradientUnits="userSpaceOnUse"
       gradientTransform="matrix(0,-0.02997086,0.02997,0,-3.0395088,13.625372)"
       x1="459.03448"
       y1="419.23337"
       x2="35.310345"
       y2="207.36522" />
    <linearGradient
       inkscape:collect="always"
       id="linearGradient4338">
      <stop
         style="stop-color:#f2f2f2;stop-opacity:1"
         offset="0"
         id="stop4340" />
      <stop
         style="stop-color:#f9f9f9;stop-opacity:1"
         offset="1"
         id="stop4342" />
    </linearGradient>
  </defs>
  <sodipodi:namedview
     pagecolor="#ffffff"
     bordercolor="#666666"
     borderopacity="1"
     objecttolerance="10"
     gridtolerance="10"
     guidetolerance="10"
     inkscape:pageopacity="0"
     inkscape:pageshadow="2"
     inkscape:window-width="834"
     inkscape:window-height="480"
     id="namedview45"
     showgrid="false"
     inkscape:zoom="4.9166667"
     inkscape:cx="24"
     inkscape:cy="24"
     inkscape:window-x="0"
     inkscape:window-y="28"
     inkscape:window-maximized="0"
     inkscape:current-layer="svg43" />
  <linearGradient
     id="a"
     gradientUnits="userSpaceOnUse"
     x1="344"
     x2="344"
     y1="62"
     y2="106">
    <stop
       offset="0"
       stop-color="#fff"
       id="stop2" />
    <stop
       offset=".125"
       stop-color="#fff"
       stop-opacity=".098039"
       id="stop4" />
    <stop
       offset=".92500001"
       stop-color="#fff"
       stop-opacity=".098039"
       id="stop6" />
    <stop
       offset="1"
       stop-color="#fff"
       stop-opacity=".498039"
       id="stop8" />
  </linearGradient>
  <clipPath
     id="b">
    <path
       d="m335.73108 62c-8.82418 0-9.77365.90635-9.7304 9.74838v12.25162 12.25162c-.0433 8.84203.90622 9.74838 9.7304 9.74838h16.53919c8.82418 0 9.7304-.90625 9.7304-9.74838v-12.25162-12.25162c0-8.84213-.90622-9.74838-9.7304-9.74838z"
       id="path11" />
  </clipPath>
  <linearGradient
     id="c"
     gradientTransform="matrix(0 -.02997086 .02997 0 -3.039507 13.625373)"
     gradientUnits="userSpaceOnUse"
     x1="459.03448"
     x2="35.310345"
     y1="419.23337"
     y2="207.36522">
    <stop
       offset="0"
       stop-color="#f2f2f2"
       id="stop14" />
    <stop
       offset="1"
       stop-color="#f9f9f9"
       id="stop16" />
  </linearGradient>
  <path
     style="color:#000000;font-style:normal;font-variant:normal;font-weight:normal;font-stretch:normal;font-size:medium;line-height:normal;font-family:sans-serif;font-variant-ligatures:normal;font-variant-position:normal;font-variant-caps:normal;font-variant-numeric:normal;font-variant-alternates:normal;font-feature-settings:normal;text-indent:0;text-align:start;text-decoration:none;text-decoration-line:none;text-decoration-style:solid;text-decoration-color:#000000;letter-spacing:normal;word-spacing:normal;text-transform:none;writing-mode:lr-tb;direction:ltr;text-orientation:mixed;dominant-baseline:auto;baseline-shift:baseline;text-anchor:start;white-space:normal;shape-padding:0;clip-rule:nonzero;display:inline;overflow:visible;visibility:visible;opacity:0.1;isolation:auto;mix-blend-mode:normal;color-interpolation:sRGB;color-interpolation-filters:linearRGB;solid-color:#000000;solid-opacity:1;vector-effect:none;fill:#000000;fill-opacity:1;fill-rule:nonzero;stroke:none;stroke-width:0.52914065;stroke-linecap:butt;stroke-linejoin:miter;stroke-miterlimit:4;stroke-dasharray:none;stroke-dashoffset:0;stroke-opacity:1;marker:none;color-rendering:auto;image-rendering:auto;shape-rendering:auto;text-rendering:auto;enable-background:accumulate"
     d="M 4.1621982,0.39685654 C 3.5740849,0.38789824 3.1108804,0.41039724 2.7297987,0.47436744 2.3487142,0.53833634 2.0368758,0.65832294 1.8084511,0.88620814 1.580029,1.1140937 1.459467,1.4257916 1.3960945,1.8070369 1.3327219,2.1882825 1.3203506,2.6524293 1.3232344,3.2420208 v 3.2399529 3.2415031 c -0.00286,0.5886852 0.00955,1.0525972 0.07286,1.4334332 0.063372,0.381246 0.1839345,0.692944 0.4123566,0.920829 0.2284247,0.227885 0.5402631,0.347873 0.9213476,0.411841 0.3810844,0.06397 0.8442174,0.07751 1.4323995,0.07751 h 4.3757443 c 0.5881821,0 1.0510744,-0.01352 1.4313677,-0.07751 0.3802929,-0.064 0.6911789,-0.18439 0.9187599,-0.412357 0.227583,-0.227967 0.347434,-0.539443 0.411325,-0.920313 0.06389,-0.380868 0.07751,-0.844073 0.07751,-1.4334332 V 6.4819737 3.30713 L 8.5379425,0.46351584 Z"
     id="path1020"
     inkscape:connector-curvature="0"
     sodipodi:nodetypes="sccsccccccsscccscccs" />
  <path
     style="color:#000000;display:inline;overflow:visible;visibility:visible;opacity:0.2;fill:none;fill-opacity:1;fill-rule:nonzero;stroke:#000000;stroke-width:0.52914065;stroke-miterlimit:4;stroke-dasharray:none;stroke-opacity:1;marker:none;enable-background:accumulate"
     d="m 4.1623596,0.39685654 c -2.334616,0 -2.5858176,0.2397933 -2.5743749,2.57913196 V 6.2174034 9.4588178 C 1.5765287,11.798157 1.8277436,12.03795 4.1623596,12.03795 h 4.3757787 c 2.3346167,0 2.5743757,-0.239767 2.5743757,-2.5791322 V 6.2174034 L 11.112336,3.0425596 8.4666329,0.39685654 Z"
     id="path958"
     inkscape:connector-curvature="0"
     sodipodi:nodetypes="scccssscccs" />
  <path
     style="color:#000000;display:inline;overflow:visible;visibility:visible;fill:url(#linearGradient1024);fill-opacity:1;fill-rule:nonzero;stroke:none;stroke-width:0.26457033;marker:none;enable-background:accumulate"
     d="m 4.1623596,0.39685654 c -2.334616,0 -2.5858176,0.2397933 -2.5743749,2.57913196 V 6.2174034 9.4588178 C 1.5765287,11.798157 1.8277436,12.03795 4.1623596,12.03795 h 4.3757787 c 2.3346167,0 2.5743757,-0.239767 2.5743757,-2.5791322 V 6.2174034 L 11.112336,3.0425596 8.4666329,0.39685654 Z"
     id="path964"
     inkscape:connector-curvature="0"
     sodipodi:nodetypes="scccssscccs" />
  <g
     style="display:inline;enable-background:new"
     id="g4649"
     transform="matrix(0.26457031,0,0,0.26457031,-38.097733,420.26992)">
    <path
       style="color:#000000;display:inline;overflow:visible;visibility:visible;fill:#3776ab;fill-opacity:1;fill-rule:nonzero;stroke:none;stroke-width:2;marker:none;enable-background:accumulate"
       d="m 166.77545,-1570.9671 c -2.68209,0 -4.77545,1.5423 -4.77545,3.4581 v 1.509 h -1.575 c -1.91578,0 -3.49499,2.1595 -3.45793,4.8413 l 0.0329,2.3832 c 0.0371,2.6819 1.57524,4.7755 3.49102,4.7755 h 1.50898 12 v -12 -1.509 c 0,-1.9158 -2.15923,-3.4581 -4.84132,-3.4581 z"
       id="path4315"
       inkscape:connector-curvature="0"
       sodipodi:nodetypes="sscsssscccsss" />
    <path
       sodipodi:nodetypes="sscssssccscccsss"
       inkscape:connector-curvature="0"
       id="path4317"
       d="m 169.15868,-1549.0329 c 2.68209,0 4.84132,-1.5423 4.84132,-3.4581 V -1554 h 1.50898 c 1.91578,0 3.42103,-2.1595 3.45809,-4.8413 l 0.0329,-2.3833 c 0.0371,-2.6818 -1.64111,-4.7754 -3.55689,-4.7754 h -1.44311 v 3 c 0,0 0.0327,3 -3,3 h -6 c 0,0 -3,0 -3,3 v 3 1.509 c 0,1.9158 2.09336,3.4581 4.77545,3.4581 z"
       style="color:#000000;display:inline;overflow:visible;visibility:visible;fill:#ffd343;fill-opacity:1;fill-rule:nonzero;stroke:none;stroke-width:2;marker:none;enable-background:accumulate"
       clip-path="none" />
  </g>
  <circle
     r="0.26457033"
     cy="5.4236541"
     cx="5.5563674"
     id="circle4321"
     style="display:inline;opacity:1;fill:#ffffff;fill-opacity:1;stroke:none;stroke-width:0.52914065;stroke-linecap:round;stroke-linejoin:round;stroke-miterlimit:4;stroke-dasharray:none;stroke-opacity:1;enable-background:new" />
  <circle
     style="display:inline;opacity:1;fill:#ffffff;fill-opacity:1;stroke:none;stroke-width:0.52914065;stroke-linecap:round;stroke-linejoin:round;stroke-miterlimit:4;stroke-dasharray:none;stroke-opacity:1;enable-background:new"
     id="circle4323"
     cx="7.1437893"
     cy="9.6567793"
     r="0.26457033" />
  <path
     style="color:#000000;display:inline;overflow:visible;visibility:visible;opacity:0.2;fill:#ffffff;fill-opacity:1;fill-rule:nonzero;stroke:none;stroke-width:0.26457033;marker:none;enable-background:accumulate"
     d="M 1.5878047,6.2174034 V 9.4589068 C 1.5763487,11.798244 1.8275822,12.03795 4.1621982,12.03795 h 4.3757443 c 2.3346165,0 2.5743935,-0.239679 2.5743935,-2.5790432 V 6.2174034 Z"
     id="path1006"
     inkscape:connector-curvature="0" />
  <path
     style="color:#000000;display:inline;overflow:visible;visibility:visible;opacity:0.1;fill:#ffffff;fill-opacity:1;fill-rule:nonzero;stroke:none;stroke-width:0.26457033;marker:none;enable-background:accumulate"
     d="M 6.3500704,0.39685654 V 12.03795 h 2.1878721 c 2.3346165,0 2.5743935,-0.239679 2.5743935,-2.5790432 V 6.2174034 3.0425596 L 8.4666329,0.39685654 Z"
     id="path1013"
     inkscape:connector-curvature="0"
     sodipodi:nodetypes="ccsscccc" />
  <path
     style="color:#000000;font-style:normal;font-variant:normal;font-weight:normal;font-stretch:normal;font-size:medium;line-height:normal;font-family:sans-serif;font-variant-ligatures:normal;font-variant-position:normal;font-variant-caps:normal;font-variant-numeric:normal;font-variant-alternates:normal;font-feature-settings:normal;text-indent:0;text-align:start;text-decoration:none;text-decoration-line:none;text-decoration-style:solid;text-decoration-color:#000000;letter-spacing:normal;word-spacing:normal;text-transform:none;writing-mode:lr-tb;direction:ltr;text-orientation:mixed;dominant-baseline:auto;baseline-shift:baseline;text-anchor:start;white-space:normal;shape-padding:0;clip-rule:nonzero;display:inline;overflow:visible;visibility:visible;opacity:0.4;isolation:auto;mix-blend-mode:normal;color-interpolation:sRGB;color-interpolation-filters:linearRGB;solid-color:#000000;solid-opacity:1;vector-effect:none;fill:url(#linearGradient1004);fill-opacity:1;fill-rule:nonzero;stroke:none;stroke-width:0.52914065;stroke-linecap:butt;stroke-linejoin:miter;stroke-miterlimit:4;stroke-dasharray:none;stroke-dashoffset:0;stroke-opacity:1;marker:none;color-rendering:auto;image-rendering:auto;shape-rendering:auto;text-rendering:auto;enable-background:accumulate"
     clip-path="none"
     d="m 4.1621982,0.39685654 c -2.334616,0 -2.5858361,0.2397052 -2.5743935,2.57904386 v 3.241503 3.2415034 C 1.5763487,11.798244 1.8275822,12.03795 4.1621982,12.03795 h 4.3757443 c 2.3346165,0 2.5743935,-0.239679 2.5743935,-2.5790432 V 6.2174034 3.0425596 h -0.26457 v 3.1748438 3.2415034 c 0,0.5803222 -0.01625,1.0240712 -0.07028,1.3461032 -0.05402,0.322035 -0.13987,0.509123 -0.264054,0.633524 -0.124184,0.124388 -0.310702,0.2105 -0.6319719,0.264571 -0.321273,0.05406 -0.7643965,0.07028 -1.3435224,0.07028 H 4.1621982 c -0.5791259,0 -1.0227997,-0.01619 -1.3450728,-0.07028 C 2.4948549,11.649003 2.3068301,11.563015 2.1820535,11.438534 2.0572795,11.314046 1.9714661,11.127183 1.9180017,10.805529 1.8645347,10.483875 1.8495336,10.040018 1.8523751,9.4599398 V 9.4594108 6.2174034 2.9753836 2.9748545 c -0.00283,-0.5800778 0.01217,-1.0239334 0.065627,-1.3455882 0.053467,-0.3216548 0.1392778,-0.5085248 0.2640518,-0.63300506 0.124774,-0.1244803 0.31332,-0.2104736 0.6355904,-0.2645703 0.3222705,-0.0540718 0.7654284,-0.0702641 1.3445543,-0.0702641 h 4.3044347 v -0.2645703 z"
     id="path990"
     inkscape:connector-curvature="0" />
  <path
     inkscape:connector-curvature="0"
     style="color:#000000;display:inline;overflow:visible;visibility:visible;opacity:0.2;fill:#000000;fill-opacity:1;fill-rule:nonzero;stroke:none;stroke-width:0.06614863;marker:none;enable-background:accumulate"
     d="M 11.112336,3.30713 V 3.0425596 L 8.4666329,0.39685654 H 8.2020626 v 1.11359066 0.042668 0.022917 c 0,1.5059289 0.201592,1.7381397 1.7109762,1.7307589 z"
     id="rect4158-0-3-62-2"
     sodipodi:nodetypes="ccccccscc" />
  <path
     inkscape:connector-curvature="0"
     style="color:#000000;display:inline;overflow:visible;visibility:visible;fill:#faf8f6;fill-opacity:1;fill-rule:nonzero;stroke:none;stroke-width:0.06614863;marker:none;enable-background:accumulate"
     d="M 11.112336,3.042221 8.4666329,0.39685604 v 0.98127586 0.042668 0.022917 c 0,1.5059289 0.069402,1.6058846 1.5787861,1.5985039 z"
     id="rect4158-0-3-62"
     sodipodi:nodetypes="ccccscc" />
</svg>
